X:0275
T:Parlalaw, a German Tune.
N:first note is G2 in the book
M:C
L:1/8
Q:1/4=120
I: :: ::
Z:Jack Campin * www.campin.me.uk * 2009
K:G
G|GBBd        d>cBd   |cB       AG/F/      G3     D |\
  GBBd        cB    Ag|f/a/f/d/ e/g/e/^c/ (d2    d):|
d|gf/g/ ef/g/ fe/f/ d2|ed/e/    cd/e/      dc/d/ B2 |\
  cBAG        FE/D/ Gc|B/d/B/G/ A/c/A/F/   G2    G :|
<end>
<start>
